X: 21539
T: Kildare Fancy, The
R: hornpipe
M: 4/4
K: Dmajor
d>B|A>FD>F A>Fd>B|(3ABA F>A f>ed>c|B>dG>B g>ef>d|(3efe(3dcBA2F>G|
A>FD>F A>Fd>B|A>dF>A f>ed>c|B>AB>d g>ef>d|e>c(3ABcd2:|
d>e|f>dc>d B>dA>d|F>Ad>e f>dc>d|e>A(3AAAg>ef>d|(3efe(3dcBA2d>e|
f>dc>d B>dA>d|F>Ad>e f>dc>d|e>Af>A g>ef>d|e>c(3ABcd2:|

